Newaita/actions/22/gtk-convert.svg

<svg height="22" viewBox="0 0 22 22" width="22" xmlns="http://www.w3.org/2000/svg"><path d="m4.484375 4.65625c-3.007813 3.007812-3.476563 7.5625-1.40625 11.054688l1.339844-1.339844c-1.386719-2.730469-.9375-6.140625 1.351562-8.429688 1.777344-1.777344 4.226563-2.445312 6.511719-2.007812l-2.332031 2.328125c-.175781.179687-.175781.464843 0 .644531l.644531.644531c.179688.175781.464844.175781.644531 0l2.960938-2.960937.574219-.578125.765624-.761719c-3.492187-2.070312-8.046874-1.601562-11.054687 1.40625zm1.808594 14.269531c3.488281 2.070313 8.046875 1.601563 11.054687-1.40625 3.007813-3.007812 3.476563-7.566406 1.40625-11.054687l-1.339844 1.339844c1.386719 2.730468.933594 6.140624-1.355468 8.425781-1.773438 1.777343-4.222656 2.445312-6.507813 2.011719l2.328125-2.332032c.179688-.175781.179688-.464844 0-.640625l-.640625-.644531c-.179687-.179688-.464843-.179688-.644531 0l-2.960938 2.960938-.578124.574218zm0 0" fill="#424242"/></svg>

<?xml version="1.0" encoding="UTF-8"?>
<svg xmlns="http://www.w3.org/2000/svg" xmlns:xlink="http://www.w3.org/1999/xlink" width="22px" height="22px" viewBox="0 0 22 22" version="1.1">
<g id="surface1">
<path style=" stroke:none;fill-rule:nonzero;fill:rgb(25.882354%,25.882354%,25.882354%);fill-opacity:1;" d="M 4.484375 4.65625 C 1.476562 7.664062 1.007812 12.21875 3.078125 15.710938 L 4.417969 14.371094 C 3.03125 11.640625 3.480469 8.230469 5.769531 5.941406 C 7.546875 4.164062 9.996094 3.496094 12.28125 3.933594 L 9.949219 6.261719 C 9.773438 6.441406 9.773438 6.726562 9.949219 6.90625 L 10.59375 7.550781 C 10.773438 7.726562 11.058594 7.726562 11.238281 7.550781 L 14.199219 4.589844 L 14.773438 4.011719 L 15.539062 3.25 C 12.046875 1.179688 7.492188 1.648438 4.484375 4.65625 Z M 6.292969 18.925781 C 9.78125 20.996094 14.339844 20.527344 17.347656 17.519531 C 20.355469 14.511719 20.824219 9.953125 18.753906 6.464844 L 17.414062 7.804688 C 18.800781 10.535156 18.347656 13.945312 16.058594 16.230469 C 14.285156 18.007812 11.835938 18.675781 9.550781 18.242188 L 11.878906 15.910156 C 12.058594 15.734375 12.058594 15.445312 11.878906 15.269531 L 11.238281 14.625 C 11.058594 14.445312 10.773438 14.445312 10.59375 14.625 L 7.632812 17.585938 L 7.054688 18.160156 Z M 6.292969 18.925781 "/>
</g>
</svg>
